X:1
T:60 Bougies
C:Laurence Beaudry
Z:robin.beech@mcgill.ca
R:jig
M:6/8
L:1/8
K:G
|: BcB BGB | BcB cAA | cdc cAc | fed B3 |
def gdd | cBA f2d |1 A^ce agf | gec d3 :|2 cBA f2e | cBA G3 ||
gfe Bef | gfe cef | gfe aef | gfe fAB |
c3 ABA | FAF EFE | DFA dcA | BcB B2d |
gfe Bef | gfe cef | gfe aef | gfe fAB |
cdc FGA | BcB EFG | ABA FED | [C6G6] |]
